svgs/sharp-light/shredder.svg

<svg xmlns="http://www.w3.org/2000/svg" viewBox="0 0 512 512"><!--! Font Awesome Pro 6.6.0 by @fontawesome - https://fontawesome.com License - https://fontawesome.com/license (Commercial License) Copyright 2024 Fonticons, Inc. --><path d="M96 32l0 160 320 0 0-114.7L370.7 32 96 32zM448 192l32 0 32 0 0 32 0 128 0 32-32 0L32 384 0 384l0-32L0 224l0-32 32 0 32 0L64 32 64 0 96 0 384 0l64 64 0 128zM32 224l0 128 448 0 0-128L32 224zm384 32l32 0 0 32-32 0 0-32zM96 496l0-80 32 0 0 80 0 16-32 0 0-16zm96 0l0-80 32 0 0 80 0 16-32 0 0-16zm96 0l0-80 32 0 0 80 0 16-32 0 0-16zm96 0l0-80 32 0 0 80 0 16-32 0 0-16z"/></svg>

<svg xmlns="http://www.w3.org/2000/svg" viewBox="0 0 512 512"><!--! Font Awesome Pro 6.5.2 by @fontawesome - https://fontawesome.com License - https://fontawesome.com/license (Commercial License) Copyright 2024 Fonticons, Inc. --><path d="M96 32V192H416V77.3L370.7 32H96zM448 192h32 32v32V352v32H480 32 0V352 224 192H32 64V32 0H96 384l64 64V192zM32 224V352H480V224H32zm384 32h32v32H416V256zM96 496V416h32v80 16H96V496zm96 0V416h32v80 16H192V496zm96 0V416h32v80 16H288V496zm96 0V416h32v80 16H384V496z"/></svg>
